assets/svgs/sprites/soundcloud.svg

<?xml version="1.0" encoding="utf-8"?>
<!-- Generator: Adobe Illustrator 19.2.0, SVG Export Plug-In . SVG Version: 6.00 Build 0)  -->
<svg version="1.1" id="Layer_1" xmlns="http://www.w3.org/2000/svg" xmlns:xlink="http://www.w3.org/1999/xlink" x="0px" y="0px"
	 viewBox="0 0 690 299.7" style="enable-background:new 0 0 690 299.7;" xml:space="preserve">
<path fill="currentColor" d="M176,294.1c-1,8-11,7-11,0l-5-73l5-140c0-7,11-8,11,0l6,140L176,294.1z M306,291.1l-4-70l4-176c0-11,17-11,17,0l4,176l-4,70
	C322,302.1,307,303.1,306,291.1z M293,73.1l5,148l-5,70c-1,12-15,10-16,0l-4-70l4-148C277,63.1,293,62.1,293,73.1z M235,292.1
	c-1,9-13,10-14,1l-5-72l5-157c0-9,14-10,14,0l5,157L235,292.1z M690,215.1c0,47-38,84-85,84H370c-5-1-9-4-9-9v-270c0-5,2-8,8-10
	c100-37,195,33,203,127C631,113.1,690,156.1,690,215.1z M264,68.1l4,153l-4,71c-1,10-14,10-15,0l-4-71l4-153
	C249,57.1,264,58.1,264,68.1z M148,106.1l6,114l-6,74c-1,7-9,7-10,0l-6-74l6-114C138,100.1,148,100.1,148,106.1z M206,69.1l5,152
	l-5,72c-1,8-12,8-13,0l-5-72l5-152C193,60.1,206,60.1,206,69.1z M334,29.1c0-12,19-11,19,0l4,192l-4,69c-1,12-18,12-19,0l-4-69
	L334,29.1z M120,150.1l6,70l-6,74c0,6-9,6-9,0l-6-74l6-70C112,144.1,120,145.1,120,150.1z M92,145.1l7,75l-7,74c0,4-8,4-8,0l-6-74
	l6-75C84,140.1,92,140.1,92,145.1z M64,147.1l7,73l-7,71c0,5-7,5-7,0l-6-71l6-73C57,143.1,64,142.1,64,147.1z M36,160.1l8,60l-8,61
	c-1,4-6,4-6,0l-6-61l6-59C31,154.1,35,154.1,36,160.1z M11,185.1l6,35l-6,38c-1,4-5,4-6,0l-5-38l5-36C6,178.1,10,177.1,11,185.1z"/>
</svg>

<svg xmlns="http://www.w3.org/2000/svg" viewBox="0 0 690 299.7">
  <path fill="currentColor" d="M176 294.1c-1 8-11 7-11 0l-5-73 5-140c0-7 11-8 11 0l6 140-6 73zm130-3l-4-70 4-176c0-11 17-11 17 0l4 176-4 70c-1 11-16 12-17 0zm-13-218l5 148-5 70c-1 12-15 10-16 0l-4-70 4-148c0-10 16-11 16 0zm-58 219c-1 9-13 10-14 1l-5-72 5-157c0-9 14-10 14 0l5 157-5 71zm455-77c0 47-38 84-85 84H370c-5-1-9-4-9-9v-270c0-5 2-8 8-10 100-37 195 33 203 127 59-24 118 19 118 78zm-426-147l4 153-4 71c-1 10-14 10-15 0l-4-71 4-153c0-11 15-10 15 0zm-116 38l6 114-6 74c-1 7-9 7-10 0l-6-74 6-114c0-6 10-6 10 0zm58-37l5 152-5 72c-1 8-12 8-13 0l-5-72 5-152c0-9 13-9 13 0zm128-40c0-12 19-11 19 0l4 192-4 69c-1 12-18 12-19 0l-4-69 4-192zm-214 121l6 70-6 74c0 6-9 6-9 0l-6-74 6-70c1-6 9-5 9 0zm-28-5l7 75-7 74c0 4-8 4-8 0l-6-74 6-75c0-5 8-5 8 0zm-28 2l7 73-7 71c0 5-7 5-7 0l-6-71 6-73c0-4 7-5 7 0zm-28 13l8 60-8 61c-1 4-6 4-6 0l-6-61 6-59c1-7 5-7 6-1zm-25 25l6 35-6 38c-1 4-5 4-6 0l-5-38 5-36c1-6 5-7 6 1z"/>
</svg>
